resources/dark/files.svg

<svg fill="none" height="16" viewBox="0 0 16 16" width="16" xmlns="http://www.w3.org/2000/svg"><path d="m13.6234 2.76628-1.3897-1.3897c-.2411-.24112-.5681-.37658-.9091-.37658h-4.61031c-.71009 0-1.28572.57562-1.28572 1.28571v1.28572h-2.14286c-.71009 0-1.28571.57562-1.28571 1.28571v8.57146c0 .7101.57562 1.2857 1.28571 1.2857h6c.71009 0 1.28569-.5756 1.28569-1.2857v-1.2857h2.1429c.7101 0 1.2857-.5757 1.2857-1.2858v-7.18169c0-.34099-.1355-.66802-.3766-.90913zm-4.4984 10.66232h-5.67857c-.04263 0-.0835-.017-.11364-.0471s-.04708-.071-.04708-.1136v-8.25004c0-.04263.01694-.0835.04708-.11364s.07101-.04708.11364-.04708h1.98214v5.99996c0 .7101.57563 1.2858 1.28572 1.2858h2.57142v1.125c0 .0426-.01693.0835-.04707.1136s-.07102.0471-.11364.0471zm3.4286-2.5715h-5.6786c-.04262 0-.0835-.0169-.11364-.047-.03014-.0302-.04707-.071-.04707-.1137v-8.24997c0-.04263.01693-.0835.04707-.11364s.07102-.04708.11364-.04708h2.83929v2.35715c0 .35504.28781.64285.64281.64285h2.3572v5.41069c0 .0427-.0169.0835-.0471.1137-.0301.0301-.071.047-.1136.047zm.1607-6.8571h-1.7143v-1.71429h.258c.0426 0 .0835.01693.1137.04707l1.2955 1.29557c.0149.01492.0268.03264.0349.05214.008.0195.0122.0404.0122.06151z" fill="#4f5258"/></svg>

<svg width="16" height="16" viewBox="0 0 16 16" fill="none" xmlns="http://www.w3.org/2000/svg">
<path d="M13.6234 2.76628L12.2337 1.37658C11.9926 1.13546 11.6656 1 11.3246 1L6.71429 1C6.0042 1 5.42857 1.57562 5.42857 2.28571V3.57143H3.28571C2.57562 3.57143 2 4.14705 2 4.85714V13.4286C2 14.1387 2.57562 14.7143 3.28571 14.7143H9.28571C9.9958 14.7143 10.5714 14.1387 10.5714 13.4286V12.1429H12.7143C13.4244 12.1429 14 11.5672 14 10.8571V3.67541C14 3.33442 13.8645 3.00739 13.6234 2.76628ZM9.125 13.4286H3.44643C3.4038 13.4286 3.36293 13.4116 3.33279 13.3815C3.30265 13.3514 3.28571 13.3105 3.28571 13.2679V5.01786C3.28571 4.97523 3.30265 4.93436 3.33279 4.90422C3.36293 4.87408 3.4038 4.85714 3.44643 4.85714H5.42857V10.8571C5.42857 11.5672 6.0042 12.1429 6.71429 12.1429H9.28571V13.2679C9.28571 13.3105 9.26878 13.3514 9.23864 13.3815C9.2085 13.4116 9.16762 13.4286 9.125 13.4286ZM12.5536 10.8571H6.875C6.83238 10.8571 6.7915 10.8402 6.76136 10.8101C6.73122 10.7799 6.71429 10.7391 6.71429 10.6964V2.44643C6.71429 2.4038 6.73122 2.36293 6.76136 2.33279C6.7915 2.30265 6.83238 2.28571 6.875 2.28571H9.71429V4.64286C9.71429 4.9979 10.0021 5.28571 10.3571 5.28571H12.7143V10.6964C12.7143 10.7391 12.6974 10.7799 12.6672 10.8101C12.6371 10.8402 12.5962 10.8571 12.5536 10.8571ZM12.7143 4H11V2.28571H11.258C11.3006 2.28571 11.3415 2.30264 11.3717 2.33278L12.6672 3.62835C12.6821 3.64327 12.694 3.66099 12.7021 3.68049C12.7101 3.69999 12.7143 3.72089 12.7143 3.742V4Z" fill="#4F5258"/>
</svg>
